X:1
T:Title
%%score 1 { ( 2 4 ) | ( 3 5 ) }
L:1/8
Q:1/4=113
M:12/8
K:F
V:1 treble nm="Akkordion"
V:2 treble nm="Grand Piano"
V:4 treble 
V:3 bass 
V:5 bass 
V:1
 C3 D2 D C3 D3 | F6- F3- F2 C | C3 D3 F3 G3 | A6- A3- A2 A | B2 B BAG A3- A2 A | %5
w: S.~L.~Krebs * * * *|||||
[M:11/8] B2 BBAGc-c- c3 |[M:1/8][Q:1/4=99] z |[M:6/4] z12 |[M:11/8] z11 |[M:1/8] z | %10
w: |||||
[M:6/4] z12[Q:1/4=98][Q:1/4=96][Q:1/4=95][Q:1/4=93] | %11
w: |
 z12[Q:1/4=92][Q:1/4=90][Q:1/4=89][Q:1/4=87][Q:1/4=86][Q:1/4=84][Q:1/4=83][Q:1/4=82][Q:1/4=80][Q:1/4=79][Q:1/4=77][Q:1/4=76] |] %12
w: |
V:2
 [A,CF]3 [A,DF]3 [F,CF]3 [G,B,F]3 | [A,CF]3 [B,DF]3 [F,CF]3 [G,B,F]3 | %2
 [A,CF]3 [A,DF]3 [A,CF]3 [B,DG]3 | [^CEA]12[K:bass] | [CEB]3 [CEB]3 [CFA]6 | %5
[M:11/8] [CEB]3 BAG[CFc]-[CFc]- [CFc]3 |[M:1/8] c |[M:6/4] d2 dded c2 c A2 F | %8
[M:11/8] F2 .F2 EF c2 c c2 |[M:1/8] [Fd] |[M:6/4] [Fc]2 [FA] [EG]2 [EB] [FA]2 [_EA] [DB]2 [DF] | %11
 F-[Fd][Fc][DB]A[B,EG] .[B,F]6 |] %12
V:3
 [F,,F,]3 [D,,D,]3 [A,,,A,,]3 [G,,,G,,]3 | [F,,,F,,]3 [B,,,B,,]3 [A,,,A,,]3 [G,,,G,,]3 | %2
 [F,,,F,,]3 [D,,D,]3 [C,,C,]3 [B,,,B,,]3 | [A,,,A,,]3 E,,3 A,,6 | %4
 [G,,G,]3 [C,,C,]3 [F,,F,]3 [C,,C,]3 | %5
[M:11/8] [G,,G,]3 [C,,C,]2 [B,,,B,,][A,,,A,,]-[A,,,A,,]- [A,,,A,,]3 |[M:1/8][K:treble] [A,F] | %7
[M:6/4] [B,F]2 [B,F] [B,F]2 [B,F] [A,CF]2 [A,CF] [F,CF]2 [A,C] | %8
[M:11/8] [B,D]2 [B,D][B,D]C[B,D] [A,CF]2[K:bass] [G,B,E] [F,A,F]2 |[M:1/8] [B,,B,] | %10
[M:6/4] [C,A,]2 [C,C] [^C,B,]2 [C,G,] [D,F,]2 [=C,F,] [B,,F,]2 B,, | %11
 z B, .[C,A,]2 CC, z A,G, A,3 |] %12
V:4
 x12 | x12 | x12 | z3[K:bass] E,3 A,6 | x12 |[M:11/8] z z2 [CE]3 z z z z2 |[M:1/8] x |[M:6/4] x12 | %8
[M:11/8] z z2 F2 z z z z z2 |[M:1/8] x |[M:6/4] x12 | .[CA]3 .E3 z6 |] %12
V:5
 x12 | x12 | x12 | x12 | x12 |[M:11/8] x11 |[M:1/8][K:treble] x |[M:6/4] x12 | %8
[M:11/8] x8[K:bass] x3 |[M:1/8] x |[M:6/4] x12 | .C,3 .C,3 F,6 |] %12

